svgs/sharp-light/newspaper.svg

<svg xmlns="http://www.w3.org/2000/svg" viewBox="0 0 512 512"><!--! Font Awesome Pro 6.6.0 by @fontawesome - https://fontawesome.com License - https://fontawesome.com/license (Commercial License) Copyright 2024 Fonticons, Inc. --><path d="M96 32l16 0 384 0 16 0 0 16 0 416 0 16-16 0-368 0-16 0-48 0-48 0L0 480l0-16L0 112 0 96l16 0 48 0 0 32-32 0 0 320 32 0 32 0L96 48l0-16zm32 416l352 0 0-384L128 64l0 384zM384 96l16 0 32 0 16 0 0 32-16 0-32 0-16 0 0-32zm0 64l16 0 32 0 16 0 0 32-16 0-32 0-16 0 0-32zm0 64l16 0 32 0 16 0 0 32-16 0-32 0-16 0 0-32zM160 288l16 0 256 0 16 0 0 32-16 0-256 0-16 0 0-32zm0 64l16 0 256 0 16 0 0 32-16 0-256 0-16 0 0-32zm32-224l0 96 128 0 0-96-128 0zM160 96l32 0 128 0 32 0 0 32 0 96 0 32-32 0-128 0-32 0 0-32 0-96 0-32z"/></svg>

<svg xmlns="http://www.w3.org/2000/svg" viewBox="0 0 512 512"><!--! Font Awesome Pro 6.4.2 by @fontawesome - https://fontawesome.com License - https://fontawesome.com/license (Commercial License) Copyright 2023 Fonticons, Inc. --><path d="M96 32h16H496h16V48 464v16H496 128 112 64 16 0V464 112 96H16 64v32H32V448H64 96V48 32zm32 416H480V64H128V448zM384 96h16 32 16v32H432 400 384V96zm0 64h16 32 16v32H432 400 384V160zm0 64h16 32 16v32H432 400 384V224zM160 288h16H432h16v32H432 176 160V288zm0 64h16H432h16v32H432 176 160V352zm32-224v96H320V128H192zM160 96h32H320h32v32 96 32H320 192 160V224 128 96z"/></svg>
